img/home/icons/icon-4.svg

<svg height="49" viewBox="0 0 49 49" width="49" xmlns="http://www.w3.org/2000/svg" xmlns:xlink="http://www.w3.org/1999/xlink"><mask id="a" fill="#fff"><path d="m0 .00018148h48.3521111v48.48005552h-48.3521111z" fill="#fff" fill-rule="evenodd"/></mask><path d="m0 24.303637c0-1.2576666.33846296-2.3256851 1.02083333-3.2067777.67964815-.8810926 1.57253704-1.3220926 2.67866667-1.3220926h15.8206481v-15.92409263c0-1.02627777.4655-1.92461111 1.4028519-2.695.935537-.76857407 2.0416667-1.15603703 3.3165741-1.15603703 1.2758148 0 2.3383889.38746296 3.1904444 1.15603703.8484259.77038889 1.2758148 1.66872223 1.2758148 2.695v15.92409263h15.8188334c1.0208333 0 1.9137222.441 2.679574 1.3220926.7658519.8810926 1.1478704 1.9491111 1.1478704 3.2067777 0 1.2585741-.3820185 2.3066297-1.1478704 3.1441667-.7658518.8393519-1.6587407 1.2576667-2.679574 1.2576667h-15.8188334v16.0511296c0 1.1124815-.4056111 2.0108148-1.2122963 2.6968148-.8094074.686-1.8937592 1.0271852-3.2539629 1.0271852-1.3611111 0-2.4872037-.3411852-3.3800926-1.0271852s-1.3393334-1.5843333-1.3393334-2.6968148v-16.0511296h-15.8206481c-1.10612963 0-1.99901852-.3965371-2.67866667-1.1941482-.68237037-.7976111-1.02083333-1.8656296-1.02083333-3.2076852" fill="#ff5722" fill-rule="evenodd" mask="url(#a)"/></svg>

<?xml version="1.0" encoding="UTF-8"?>
<svg width="49px" height="49px" viewBox="0 0 49 49" version="1.1" xmlns="http://www.w3.org/2000/svg" xmlns:xlink="http://www.w3.org/1999/xlink">
    <!-- Generator: Sketch 51.3 (57544) - http://www.bohemiancoding.com/sketch -->
    <title>icon-4</title>
    <desc>Created with Sketch.</desc>
    <defs>
        <polygon id="path-1" points="0 0.000181481481 48.3521111 0.000181481481 48.3521111 48.480237 0 48.480237"></polygon>
    </defs>
    <g id="Home-&amp;-Quote" stroke="none" stroke-width="1" fill="none" fill-rule="evenodd">
        <g id="TT-Home-01" transform="translate(-1140.000000, -4961.000000)">
            <g id="icon-4" transform="translate(1140.000000, 4961.000000)">
                <mask id="mask-2" fill="white">
                    <use xlink:href="#path-1"></use>
                </mask>
                <g id="Clip-2"></g>
                <path d="M0,24.303637 C0,23.0459704 0.338462963,21.9779519 1.02083333,21.0968593 C1.70048148,20.2157667 2.59337037,19.7747667 3.6995,19.7747667 L19.5201481,19.7747667 L19.5201481,3.85067407 C19.5201481,2.8243963 19.9856481,1.92606296 20.923,1.15567407 C21.858537,0.3871 22.9646667,-0.000362962963 24.2395741,-0.000362962963 C25.5153889,-0.000362962963 26.577963,0.3871 27.4300185,1.15567407 C28.2784444,1.92606296 28.7058333,2.8243963 28.7058333,3.85067407 L28.7058333,19.7747667 L44.5246667,19.7747667 C45.5455,19.7747667 46.4383889,20.2157667 47.2042407,21.0968593 C47.9700926,21.9779519 48.3521111,23.0459704 48.3521111,24.303637 C48.3521111,25.5622111 47.9700926,26.6102667 47.2042407,27.4478037 C46.4383889,28.2871556 45.5455,28.7054704 44.5246667,28.7054704 L28.7058333,28.7054704 L28.7058333,44.7566 C28.7058333,45.8690815 28.3002222,46.7674148 27.493537,47.4534148 C26.6841296,48.1394148 25.5997778,48.4806 24.2395741,48.4806 C22.878463,48.4806 21.7523704,48.1394148 20.8594815,47.4534148 C19.9665926,46.7674148 19.5201481,45.8690815 19.5201481,44.7566 L19.5201481,28.7054704 L3.6995,28.7054704 C2.59337037,28.7054704 1.70048148,28.3089333 1.02083333,27.5113222 C0.338462963,26.7137111 0,25.6456926 0,24.303637" id="Fill-1" fill="#FF5722" mask="url(#mask-2)"></path>
            </g>
        </g>
    </g>
</svg>
